X:762
T:Hop High Ladies
S:Adapted from New Lost City Ramblers
Z:Nigel Gatherer
M:4/4
L:1/8
K:G
GABd  dBGA | BdBA  B2 A2 | GABd  dBGA | BdBG  A2 B2  |
GABd  dBGA | BdBA  B2 d2 | eded  efgd | BdBA  G2 G2 ||
GABd  efgd | B2 B2 B3 G- | GG g2 eegg | A2 a2 A2 a2  |
G2 g2 eegg | B2 B2 B2 d2 | eded  efgd | BG A2 G2 G2 |]
<end>
<start>
